img/icon-road-sign.svg

<svg width="48" height="48" viewBox="0 0 48 48" fill="none" xmlns="http://www.w3.org/2000/svg">
<g clip-path="url(#clip0)">
<path d="M27.4368 5.75599C27.183 5.30478 26.6114 5.14465 26.16 5.39853L26.1139 5.42449C25.6627 5.67837 25.5026 6.24996 25.7564 6.70127C25.9285 7.00718 26.2466 7.1793 26.5744 7.1793C26.73 7.1793 26.8879 7.1404 27.0332 7.05874L27.0794 7.03277C27.5306 6.7789 27.6907 6.20731 27.4368 5.75599Z" fill="url(#paint0_linear)"/>
<path d="M47.7256 8.52482L39.4756 0.274817C39.2075 0.00669155 38.8042 -0.0734647 38.4539 0.0716603C38.1037 0.216692 37.8752 0.558598 37.8752 0.937723V3.37522H33.9377C32.4904 3.37522 31.0557 3.56938 29.6734 3.95235C29.1745 4.09063 28.8821 4.60719 29.0203 5.10613C29.1585 5.60507 29.6749 5.89728 30.174 5.75928C31.3933 5.4215 32.6596 5.25022 33.9377 5.25022H38.8127C39.3305 5.25022 39.7502 4.8305 39.7502 4.31272V3.20104L45.7369 9.18772L39.7502 15.1744V14.0627C39.7502 13.5449 39.3305 13.1252 38.8127 13.1252H33.9377C30.5259 13.1252 27.7502 15.9009 27.7502 19.3127V31.507C26.0329 28.2971 23.2494 25.7398 19.8752 24.313V19.3127C19.8752 15.428 21.4245 11.8121 24.2378 9.1311C24.6126 8.77391 24.6268 8.18047 24.2697 7.80566C23.9124 7.43085 23.3189 7.4165 22.9442 7.77379C19.7561 10.8121 18.0002 14.91 18.0002 19.3127V23.656C16.6281 23.2698 15.1816 23.0627 13.6877 23.0627H10.1252V20.6252C10.1252 20.2461 9.89675 19.9042 9.5465 19.7591C9.19625 19.6139 8.79285 19.6943 8.52481 19.9622L0.274814 28.2122C-0.0912793 28.5783 -0.0912793 29.1719 0.274814 29.5381L8.52481 37.7881C8.79294 38.0562 9.19616 38.1365 9.5465 37.9913C9.89685 37.8462 10.1252 37.5043 10.1252 37.1251V34.6876H13.6877C16.0656 34.6876 18.0002 36.6223 18.0002 39.0001V47.0626C18.0002 47.5804 18.4199 48.0001 18.9377 48.0001H28.6877C29.2055 48.0001 29.6252 47.5804 29.6252 47.0626V19.3127C29.6252 16.9348 31.5598 15.0002 33.9377 15.0002H37.8752V17.4377C37.8752 17.8168 38.1037 18.1588 38.4539 18.3039C38.8042 18.449 39.2075 18.3688 39.4756 18.1007L47.7256 9.85072C48.0917 9.48454 48.0917 8.89091 47.7256 8.52482ZM27.7502 46.1252H25.1252V39.8513C25.1252 39.3335 24.7055 38.9138 24.1877 38.9138C23.6699 38.9138 23.2502 39.3335 23.2502 39.8513V46.1252H19.8752V39.0002C19.8752 35.5884 17.0996 32.8127 13.6877 32.8127H9.18772C8.66994 32.8127 8.25022 33.2324 8.25022 33.7502V34.8619L2.26353 28.8752L8.25022 22.8885V24.0002C8.25022 24.518 8.66994 24.9377 9.18772 24.9377H13.6877C21.4418 24.9377 27.7502 31.2462 27.7502 39.0002V46.1252Z" fill="url(#paint1_linear)"/>
<path d="M24.8503 35.5688C24.6759 35.3934 24.4341 35.2941 24.1875 35.2941C23.9409 35.2941 23.6991 35.3934 23.5247 35.5688C23.3503 35.7431 23.25 35.9841 23.25 36.2316C23.25 36.4781 23.3503 36.72 23.5247 36.8944C23.6991 37.0688 23.9409 37.1691 24.1875 37.1691C24.4341 37.1691 24.6759 37.0688 24.8503 36.8944C25.0247 36.72 25.125 36.4781 25.125 36.2316C25.125 35.9841 25.0247 35.7431 24.8503 35.5688Z" fill="url(#paint2_linear)"/>
</g>
<defs>
<linearGradient id="paint0_linear" x1="26.5966" y1="5.27795" x2="26.5966" y2="7.1793" gradientUnits="userSpaceOnUse">
<stop stop-color="#C45ED3"/>
<stop offset="1" stop-color="#FBA2B8"/>
</linearGradient>
<linearGradient id="paint1_linear" x1="24.0002" y1="0.000244141" x2="24.0002" y2="48.0001" gradientUnits="userSpaceOnUse">
<stop stop-color="#C45ED3"/>
<stop offset="1" stop-color="#FBA2B8"/>
</linearGradient>
<linearGradient id="paint2_linear" x1="24.1875" y1="35.2941" x2="24.1875" y2="37.1691" gradientUnits="userSpaceOnUse">
<stop stop-color="#C45ED3"/>
<stop offset="1" stop-color="#FBA2B8"/>
</linearGradient>
<clipPath id="clip0">
<rect width="48" height="48" fill="white"/>
</clipPath>
</defs>
</svg>

<svg xmlns="http://www.w3.org/2000/svg" width="48" height="48" fill="none"  ><g clip-path="url(#D)"><path d="M27.437 5.756a.94.94 0 0 0-1.277-.357l-.046.026a.94.94 0 0 0-.358 1.277c.172.306.49.478.818.478.156 0 .313-.039.459-.121l.046-.026a.94.94 0 0 0 .357-1.277z" fill="url(#A)"/><path d="M47.726 8.525l-8.25-8.25a.94.94 0 0 0-1.022-.203.94.94 0 0 0-.579.866v2.437h-3.937a15.97 15.97 0 0 0-4.264.577.94.94 0 0 0-.653 1.154.94.94 0 0 0 1.154.653 14.1 14.1 0 0 1 3.764-.509h4.875a.94.94 0 0 0 .938-.937V3.201l5.987 5.987-5.987 5.987v-1.112a.94.94 0 0 0-.937-.937h-4.875c-3.412 0-6.187 2.776-6.187 6.188v12.194c-1.717-3.21-4.501-5.767-7.875-7.194v-5c0-3.885 1.549-7.501 4.363-10.182a.94.94 0 0 0 .032-1.325.94.94 0 0 0-1.326-.032C19.756 10.812 18 14.91 18 19.313v4.343c-1.372-.386-2.819-.593-4.312-.593h-3.562v-2.437a.94.94 0 0 0-1.6-.663l-8.25 8.25a.94.94 0 0 0 0 1.326l8.25 8.25c.268.268.671.348 1.022.203a.94.94 0 0 0 .579-.866v-2.437h3.563A4.32 4.32 0 0 1 18 39v8.063a.94.94 0 0 0 .938.938h9.75a.94.94 0 0 0 .938-.937v-27.75A4.32 4.32 0 0 1 33.938 15h3.938v2.438a.94.94 0 0 0 1.6.663l8.25-8.25a.94.94 0 0 0 0-1.326zm-19.975 37.6h-2.625v-6.274a.94.94 0 0 0-.937-.937.94.94 0 0 0-.937.938v6.274h-3.375V39c0-3.412-2.776-6.187-6.187-6.187h-4.5a.94.94 0 0 0-.937.938v1.112l-5.987-5.987 5.987-5.987V24a.94.94 0 0 0 .938.938h4.5c7.754 0 14.063 6.309 14.063 14.063v7.125z" fill="url(#B)"/><path d="M24.85 35.569a.94.94 0 0 0-1.326 0c-.174.174-.275.415-.275.663s.1.488.275.663.416.275.663.275.488-.1.663-.275.275-.416.275-.663-.1-.489-.275-.663z" fill="url(#C)"/></g><defs><linearGradient id="A" x1="26.597" y1="5.278" x2="26.597" y2="7.179" gradientUnits="userSpaceOnUse"><stop stop-color="#c45ed3"/><stop offset="1" stop-color="#fba2b8"/></linearGradient><linearGradient id="B" x1="24" y1="0" x2="24" y2="48" gradientUnits="userSpaceOnUse"><stop stop-color="#c45ed3"/><stop offset="1" stop-color="#fba2b8"/></linearGradient><linearGradient id="C" x1="24.188" y1="35.294" x2="24.188" y2="37.169" gradientUnits="userSpaceOnUse"><stop stop-color="#c45ed3"/><stop offset="1" stop-color="#fba2b8"/></linearGradient><clipPath id="D"><path fill="#fff" d="M0 0h48v48H0z"/></clipPath></defs></svg>
